X: 1
T: Dans les Abris de Paris
C: Gus van Parys
R: waltz
Z: 2017 John Chambers <jc:trillian.mit.edu>
M: 3/4
L: 1/4
K: D
[|\
"D"f3 | "Bm"d3 | "Em"efg | "A7"f2e |\
ABc | "Bm"def | "Em"gaf | "A7"e3 |
"D7"a3 | f3 | "G"gab | "D"a2f |\
"Bm"dcd | "E7"Bcd | "A7"efd | e3 ||
"D"f3 | "Bm"d3 | "Em" efg | "A7"f2e |\
"D"ABc | "D7"def | "G"agf | "A7"e3 |
"D"dcd | "Gm"a2g | "D"fff | "Bm"e2d |\
"E7"eee | efd | "A7"e3- | e2z |]
[|\
"Em"Bcd | "A7"efe | "D"A3- | "F"AdB |\
"Em"dBd | "A7"cde | "D"f3 | d3 |
"G"Bcd | "F#7"efe | "Bm"d3- | dcd |\
"E7"Bcd | efd | "Asus"e3- | "A7"efg ||
"D7"aba | def | "G"a3 | g3 |\
"B7"fgf | bfg | "Em"e3- | "A7"ezz |
"G"Bcd | "F#7"efe | "Bm"def | "E7"c2B |\
"A7"Bcd | efA | "D"d3- | d3 |]
